X:50
T:y Cercle Gwenvidik
C: Brittany (fr group Gwenvidik) | 
G:Lark24
L:1/8
Q:1/4=205
D:
M:6/8
K:G
|: "Em" EGE "D"DEF |"Em" EGA "G"B2 B | BcB BAA | "Am"ABA AGF |"Em" EGE "D"DEF |"Em" EGA B2 ^c |\
"A"^c/<d/cB AGF |1 "D" EDF "Em"E2 E :|2 "D"EDF "Em"E2 A |: "Em"B2 B "G"BAG | 
"D"A2 A Adc |"Em" B2 B "G"BAG | "D"FGA AGA |"Em" B2 B BAG | "D"A2 A Ade |"G(C)" B2 B BAF |"D" EDF "Em"E2 E :|] 

